X:62
T:Let Our Gladness Have No End
%%stretchlast false
M:4/4
L:1/4
K:Eb clef=C1
"^I¹"[G,B,E] "^V¹"[D,F,B,F] "^I"[E,B,G] "^IV¹"[C,E,EA] | "^V"[B,,F,DB] "^I"[E,G,EB] "^V"[B,,F,DB]2 | "^ii"[F,CA] "^I"[E,G,EB] "^IV"[A,,A,Ec] [A,,A,Dc] | "^I"[E,G,EB]3 "^I¹"[G,E] | [G,,EB] "^vi+²"[A,,B,CB] "^vi+"[A,,CA] "^V7"[B,,F,DA] | "^iii"[G,B,DG] "^♯iii"[A,B,FG] "^ii¹"[A,CF] "^ii"[E,CEF] | "^i¹"[A,,B,EG] [B,,CEA] "^V"[B,,B,DF] "^ii"[E,,F,EF] | "^I"[E,,G,E]2 [E,G,B,E] "^V¹"[D,B,] | "^vi"[C,E,EG] "^i"[A,,F,EF] "^I¹"[G,,E,B,G] "^vi"[G,,C,B,A] | "^V²"[F,,D,CB] [F,,D,DB] "^i"[E,,F,EB] [E,,B,EA] | "^iii¹"[B,G]2 "^vi"[C,E] "^♯iii"[A,F] | "^vi"[G,CDG] "^ii"[F,CF] "^I+"[E,=B,G] "^IVmaj7²"[E,CGA] | "^i"[F,EFB]2 "^vi7"[C,CEB] "^IV¹"[C,CEA] | "^vi"[CG]2 "^i"[E,B,]2 | "^i¹"[A,,G,E]2 "^vi²"[G,,CE]2 | "^i¹"[A,,B,E]2 "^♯iii°"[B,,A,Dc] "^IV¹"[C,A,Ec] | "^♯iii"[A,,F,FB] "^Imaj7²"[B,,E,DG] "^vi"[E,,B,CF] "^i"[E,,B,F]/ [E,,A,B,F]/ | "^I"[E,,G,B,E]4 |]
